src/assets/icons/stroke/arrowRedo.svg

<svg xmlns="http://www.w3.org/2000/svg" width="1em" height="1em" fill="none"><path fill="currentColor" d="M13.6 9.4c1.7.3 3.2.9 4.6 2L21 8.5v7h-7l2.7-2.7a8 8 0 0 0-11.4 1.9l-.5.8-1.8-.9c2.1-3.8 6.3-5.9 10.6-5.2Z"/></svg>

<svg width="1em" height="1em" viewBox="0 0 24 24" fill="none" xmlns="http://www.w3.org/2000/svg">
    <path
        d="M13.6 9.4C15.3 9.7 16.8 10.3 18.2 11.4L21 8.5V15.5H14L16.7 12.8C13 10.1 7.9 11 5.3 14.7C5.1 15 4.9 15.2 4.8 15.5L3 14.6C5.1 10.8 9.3 8.7 13.6 9.4Z"
        fill="currentColor" />

</svg>
